X:165
T:Love At The Endings
R:reel
M:4/4
L:1/8
K:Dmaj
|:DEFA B2 dB|A~F3 BFAF|DEFA B2 AF|GEED B,EEF|
|DEFA B2 dB|A~F3 ABde|~f3e dfec|1 dBAF D3 E:|2 dBAF D3 e||
|:~f3e defg|afbf afeg|~f3e dfbf|afdf efde|
|~f3e ~d3B|A~F3 ABde|~f3e dfec|1 dBAF D3 e:|2 dBAF D3 E||

